packages/foundations/assets/icons/functional/images/business & payment/shopping_bag.svg

<svg xmlns="http://www.w3.org/2000/svg" width="32" height="32" fill="none"><path fill="#1A1C1F" fill-rule="evenodd" d="M15.125 2.562c-1.896.299-3.567 1.488-4.432 3.153-.389.75-.584 1.44-.694 2.454l-.032.303-1.61.017-1.61.018-.241.141c-.302.178-.47.468-.509.88-.045.482-.984 18.493-.984 18.881 0 .517.187.83.601 1.002.174.073 1.338.082 10.4.082h10.203l.238-.12c.241-.122.452-.376.517-.623.02-.075-.192-4.494-.472-9.819l-.507-9.682-.129-.23a1.1 1.1 0 0 0-.37-.371l-.241-.141-1.61-.018-1.611-.017-.027-.223c-.016-.122-.042-.36-.06-.529-.054-.51-.282-1.263-.553-1.827-.763-1.59-2.198-2.758-3.943-3.208-.581-.15-1.759-.212-2.324-.123m1.43 1.997c.173.017.497.091.72.166 1.485.494 2.529 1.81 2.7 3.403l.037.352h-8.027l.035-.336c.163-1.598 1.25-2.96 2.739-3.433.404-.128 1.08-.228 1.348-.198.073.009.275.029.448.046m7.501 6.121c.001.095.201 3.905.445 8.467.244 4.561.433 8.311.421 8.333s-4.027.04-8.922.04-8.91-.018-8.922-.04.177-3.772.421-8.333a2800 2800 0 0 0 .445-8.467l.003-.173h16.106zm-13.577 1.983c-.228.136-.417.423-.471.713-.018.097-.008.415.022.708a6.04 6.04 0 0 0 2.659 4.411c1.15.758 2.59 1.121 3.875.976 2.091-.235 3.838-1.42 4.768-3.235.4-.779.649-1.755.66-2.581.004-.334-.017-.44-.126-.634-.326-.575-1.195-.67-1.611-.176-.178.212-.238.414-.278.942A4 4 0 0 1 16 17.493a3.997 3.997 0 0 1-3.977-3.706c-.04-.528-.1-.73-.278-.942-.282-.335-.87-.42-1.266-.182"/></svg>

<svg width="32" height="32" viewBox="0 0 32 32" fill="none" xmlns="http://www.w3.org/2000/svg"><path d="M15.125 2.562 C 13.229 2.861,11.558 4.050,10.693 5.715 C 10.304 6.465,10.109 7.155,9.999 8.169 L 9.967 8.472 8.357 8.489 L 6.747 8.507 6.506 8.648 C 6.204 8.826,6.036 9.116,5.997 9.528 C 5.952 10.010,5.013 28.021,5.013 28.409 C 5.013 28.926,5.200 29.239,5.614 29.411 C 5.788 29.484,6.952 29.493,16.014 29.493 L 26.217 29.493 26.455 29.373 C 26.696 29.251,26.907 28.997,26.972 28.750 C 26.992 28.675,26.780 24.256,26.500 18.931 L 25.993 9.249 25.864 9.019 C 25.783 8.876,25.643 8.736,25.494 8.648 L 25.253 8.507 23.643 8.489 L 22.032 8.472 22.005 8.249 C 21.989 8.127,21.963 7.889,21.945 7.720 C 21.891 7.210,21.663 6.457,21.392 5.893 C 20.629 4.303,19.194 3.135,17.449 2.685 C 16.868 2.535,15.690 2.473,15.125 2.562 M16.555 4.559 C 16.728 4.576,17.052 4.650,17.275 4.725 C 18.760 5.219,19.804 6.535,19.975 8.128 L 20.012 8.480 15.999 8.480 L 11.985 8.480 12.020 8.144 C 12.183 6.546,13.270 5.184,14.759 4.711 C 15.163 4.583,15.839 4.483,16.107 4.513 C 16.180 4.522,16.382 4.542,16.555 4.559 M24.056 10.680 C 24.057 10.775,24.257 14.585,24.501 19.147 C 24.745 23.708,24.934 27.458,24.922 27.480 C 24.910 27.502,20.895 27.520,16.000 27.520 C 11.105 27.520,7.090 27.502,7.078 27.480 C 7.065 27.458,7.255 23.708,7.499 19.147 C 7.742 14.585,7.943 10.775,7.944 10.680 L 7.947 10.507 16.000 10.507 L 24.053 10.507 24.056 10.680 M10.479 12.663 C 10.251 12.799,10.062 13.086,10.008 13.376 C 9.990 13.473,10.000 13.791,10.030 14.084 C 10.213 15.876,11.202 17.516,12.689 18.495 C 13.839 19.253,15.279 19.616,16.564 19.471 C 18.655 19.236,20.402 18.051,21.332 16.236 C 21.732 15.457,21.981 14.481,21.992 13.655 C 21.996 13.321,21.975 13.215,21.866 13.021 C 21.540 12.446,20.671 12.351,20.255 12.845 C 20.077 13.057,20.017 13.259,19.977 13.787 C 19.820 15.875,18.084 17.493,16.000 17.493 C 13.914 17.493,12.180 15.877,12.023 13.787 C 11.983 13.259,11.923 13.057,11.745 12.845 C 11.463 12.510,10.875 12.425,10.479 12.663 " fill="#1A1C1F" stroke="none" fill-rule="evenodd"></path></svg>
